svg/incidents.svg

<?xml version="1.0" encoding="UTF-8"?>
<svg xmlns="http://www.w3.org/2000/svg" xmlns:xlink="http://www.w3.org/1999/xlink" width="32" height="32" viewBox="0 0 32 32">
<path fill-rule="nonzero" fill="rgb(25.098039%, 25.098039%, 25.490196%)" fill-opacity="1" d="M 19.167969 25.824219 C 18.371094 26.742188 17.214844 27.269531 16 27.265625 C 14.71875 27.265625 13.601562 26.6875 12.832031 25.824219 C 11.648438 26.304688 10.785156 27.488281 10.785156 28.832031 L 10.785156 30.976562 C 10.785156 31.519531 11.230469 31.96875 11.777344 31.96875 L 20.191406 31.96875 C 20.738281 31.964844 21.179688 31.523438 21.183594 30.976562 L 21.183594 28.832031 C 21.207031 27.507812 20.402344 26.304688 19.167969 25.824219 M 13.921875 25.601562 C 14.496094 26.046875 15.199219 26.335938 16 26.335938 C 16.800781 26.335938 17.503906 26.046875 18.078125 25.601562 C 19.042969 24.816406 19.476562 23.550781 19.199219 22.335938 C 18.945312 21.054688 17.886719 20.0625 16.609375 19.839844 C 15.644531 19.65625 14.652344 19.914062 13.898438 20.539062 C 13.140625 21.160156 12.703125 22.089844 12.703125 23.070312 C 12.703125 24.0625 13.183594 24.992188 13.921875 25.601562 M 9.472656 28.449219 C 4.832031 25.984375 1.953125 21.214844 1.953125 16 C 1.953125 15.070312 2.046875 14.113281 2.238281 13.214844 L 3.808594 13.535156 C 3.648438 14.335938 3.550781 15.167969 3.550781 16 C 3.550781 20.640625 6.113281 24.863281 10.207031 27.007812 Z M 22.65625 28.382812 L 21.886719 26.976562 C 25.929688 24.808594 28.453125 20.589844 28.449219 16 C 28.449219 15.070312 28.351562 14.175781 28.160156 13.28125 L 29.726562 12.929688 C 29.953125 13.921875 30.046875 14.945312 30.046875 16 C 30.046875 21.183594 27.199219 25.921875 22.660156 28.382812 M 22.398438 5.3125 C 20.464844 4.15625 18.253906 3.546875 16 3.550781 C 13.761719 3.550781 11.585938 4.160156 9.664062 5.28125 L 8.863281 3.902344 C 11.023438 2.625 13.488281 1.949219 16 1.953125 C 18.527344 1.953125 21.023438 2.625 23.199219 3.9375 Z M 8.382812 6.046875 C 7.589844 6.96875 6.433594 7.496094 5.214844 7.488281 C 4.003906 7.480469 2.851562 6.957031 2.046875 6.046875 C 0.8125 6.535156 0 7.726562 0 9.054688 L 0 11.136719 C 0 11.710938 0.480469 12.191406 1.054688 12.191406 L 9.34375 12.191406 C 9.921875 12.191406 10.398438 11.710938 10.398438 11.136719 L 10.398438 9.054688 C 10.433594 7.710938 9.566406 6.527344 8.382812 6.046875 M 3.136719 5.824219 C 3.710938 6.273438 4.414062 6.558594 5.214844 6.558594 C 6.015625 6.558594 6.71875 6.273438 7.296875 5.824219 C 8.257812 5.035156 8.691406 3.773438 8.414062 2.558594 C 8.160156 1.28125 7.105469 0.289062 5.824219 0.0625 C 4.859375 -0.125 3.863281 0.125 3.105469 0.753906 C 2.347656 1.378906 1.914062 2.316406 1.921875 3.296875 C 1.921875 4.289062 2.398438 5.214844 3.136719 5.824219 M 29.953125 6.046875 C 29.15625 6.964844 28 7.492188 26.785156 7.488281 C 25.570312 7.484375 24.417969 6.960938 23.617188 6.046875 C 22.433594 6.527344 21.566406 7.710938 21.566406 9.054688 L 21.566406 11.230469 C 21.566406 11.777344 22.015625 12.191406 22.527344 12.191406 L 31.039062 12.191406 C 31.570312 12.1875 31.996094 11.761719 32 11.230469 L 32 9.054688 C 32 7.726562 31.1875 6.535156 29.953125 6.046875 M 24.703125 5.824219 C 25.28125 6.273438 25.984375 6.558594 26.785156 6.558594 C 27.585938 6.558594 28.289062 6.273438 28.863281 5.824219 C 29.824219 5.035156 30.257812 3.769531 29.984375 2.558594 C 29.726562 1.28125 28.671875 0.289062 27.390625 0.0625 C 25.3125 -0.320312 23.519531 1.246094 23.519531 3.296875 C 23.519531 4.289062 23.96875 5.214844 24.703125 5.824219 M 24.703125 5.824219 "/>
</svg>

<svg role="img" viewBox="0 0 32 32" xmlns="http://www.w3.org/2000/svg"><path d="M19.168 25.824A4.18 4.18 0 0 1 16 27.266c-1.281 0-2.398-.578-3.168-1.442-1.184.48-2.047 1.664-2.047 3.008v2.145c0 .543.445.992.992.992h8.414a1 1 0 0 0 .993-.992v-2.145a3.17 3.17 0 0 0-2.016-3.008m-5.246-.222c.574.445 1.277.734 2.078.734s1.504-.29 2.078-.734a3.27 3.27 0 0 0 1.121-3.266c-.254-1.281-1.312-2.273-2.59-2.496a3.28 3.28 0 0 0-2.71.7 3.27 3.27 0 0 0-1.196 2.53c0 .992.48 1.922 1.219 2.532m-4.45 2.847C4.833 25.984 1.954 21.215 1.954 16c0-.93.094-1.887.285-2.785l1.57.32c-.16.8-.257 1.633-.257 2.465 0 4.64 2.562 8.863 6.656 11.008Zm13.184-.066-.77-1.406A12.44 12.44 0 0 0 28.45 16c0-.93-.097-1.824-.289-2.719l1.567-.351c.226.992.32 2.015.32 3.07 0 5.184-2.848 9.922-7.387 12.383m-.262-23.07A12.4 12.4 0 0 0 16 3.55c-2.238 0-4.414.61-6.336 1.73l-.8-1.379A14 14 0 0 1 16 1.953c2.527 0 5.023.672 7.2 1.985Zm-14.015.734a4.14 4.14 0 0 1-3.168 1.441 4.25 4.25 0 0 1-3.168-1.441A3.235 3.235 0 0 0 0 9.055v2.082c0 .574.48 1.054 1.055 1.054h8.289c.578 0 1.054-.48 1.054-1.054V9.055c.036-1.344-.832-2.528-2.015-3.008m-5.246-.223c.574.45 1.277.735 2.078.735s1.504-.286 2.082-.735A3.28 3.28 0 0 0 8.414 2.56C8.16 1.28 7.105.289 5.824.063a3.29 3.29 0 0 0-2.719.69 3.28 3.28 0 0 0-1.183 2.544c0 .992.476 1.918 1.215 2.527m26.816.223a4.18 4.18 0 0 1-3.168 1.441 4.23 4.23 0 0 1-3.168-1.441c-1.183.48-2.05 1.664-2.05 3.008v2.175c0 .547.449.961.96.961h8.512a.964.964 0 0 0 .961-.96V9.054c0-1.328-.812-2.52-2.047-3.008m-5.25-.223c.578.45 1.281.735 2.082.735s1.504-.286 2.078-.735a3.28 3.28 0 0 0 1.121-3.265C29.727 1.28 28.672.289 27.391.063 25.313-.32 23.52 1.246 23.52 3.297c0 .992.449 1.918 1.183 2.527m0 0" fill="rgb(25.098041%, 25.098041%, 25.490198%)"/></svg>
